src/amo/components/CategoryIcon/img/language-support.svg

<svg xmlns="http://www.w3.org/2000/svg" width="64" height="64" viewBox="0 0 64 64">
  <g class="two" fill="#0F1126">
    <path d="M24.8085081,17.8541063 C24.8085081,13.2231411 28.5872048,9.44444444 33.2181699,9.44444444 L54.9843535,9.44444444 C59.6153187,9.44444444 63.3940154,13.2231411 63.3940154,17.8541063 L63.3940154,39.6202899 C63.3940154,44.251255 59.6153187,48.0299517 54.9843535,48.0299517 L19.3669622,48.0299517 C17.2929758,48.0299517 16.1399289,45.6308936 17.4355379,44.0113823 L24.8085081,34.7951696 L24.8085081,17.8541063 Z M54.9843535,43.0830918 C56.8832434,43.0830918 58.4471555,41.5191797 58.4471555,39.6202899 L58.4471555,17.8541063 C58.4471555,15.9552164 56.8832434,14.3913043 54.9843535,14.3913043 L33.2181699,14.3913043 C31.31928,14.3913043 29.755368,15.9552164 29.755368,17.8541063 L29.755368,35.6628019 C29.755368,36.2244474 29.5642195,36.76937 29.2133624,37.2079414 L24.513242,43.0830918 L54.9843535,43.0830918 Z"/>
  </g>
  <g class="one" fill="#0f1126">
    <path d="M36.7922705,34.1400966 C36.1092517,34.1400966 35.5555556,33.5864005 35.5555556,32.9033816 C35.5555556,32.2203628 36.1092517,31.6666667 36.7922705,31.6666667 L50.6434783,31.6666667 C51.3264971,31.6666667 51.8801932,32.2203628 51.8801932,32.9033816 C51.8801932,33.5864005 51.3264971,34.1400966 50.6434783,34.1400966 L36.7922705,34.1400966 Z M36.7922705,24.3623188 C36.1092517,24.3623188 35.5555556,23.8086227 35.5555556,23.1256039 C35.5555556,22.442585 36.1092517,21.8888889 36.7922705,21.8888889 L50.6434783,21.8888889 C51.3264971,21.8888889 51.8801932,22.442585 51.8801932,23.1256039 C51.8801932,23.8086227 51.3264971,24.3623188 50.6434783,24.3623188 L36.7922705,24.3623188 Z M16.7372192,32.2171106 L10.3884058,34.7742716 L10.3884058,37.8966184 C10.3884058,38.3650514 10.1237459,38.7932802 9.70476657,39.0027699 L4.97088052,41.3695832 C2.99308814,42.3925792 2.99308814,45.2731213 4.95578106,46.2884379 L9.70476657,48.6629306 C10.1237459,48.8724203 10.3884058,49.300649 10.3884058,49.7690821 L10.3884058,53.72657 C10.3884058,56.5862072 8.05384008,58.9207729 5.1942029,58.9207729 L1.23671498,58.9207729 C0.553696155,58.9207729 0,58.3670768 0,57.684058 C0,57.0010391 0.553696155,56.447343 1.23671498,56.447343 L5.1942029,56.447343 C6.68780243,56.447343 7.91497585,55.2201696 7.91497585,53.72657 L7.91497585,50.5333954 L3.83453011,48.4930614 C0.0739650036,46.5479416 0.0739650036,41.1177589 3.84962956,39.1649596 L7.91497585,37.1322865 L7.91497585,33.9391304 C7.91497585,33.4345108 8.2215628,32.9805029 8.6896407,32.7919715 L15.8312143,29.9156692 C16.2904621,29.7390354 16.4434507,29.0297245 16.0988275,28.6850658 L8.2827889,20.9679644 C8.04744436,20.7355989 7.91497585,20.4186504 7.91497585,20.0879227 L7.91497585,6.23671498 C7.91497585,5.55369615 8.468672,5 9.15169082,5 C9.83470964,5 10.3884058,5.55369615 10.3884058,6.23671498 L10.3884058,19.5710399 L17.842219,26.9305346 C19.4611776,28.5494932 18.8449358,31.4066142 16.7372192,32.2171106 Z"/>
  </g>
</svg>

<svg xmlns="http://www.w3.org/2000/svg" width="64" height="64"><path d="M24.809 17.854c0-4.63 3.778-8.41 8.41-8.41h21.765c4.631 0 8.41 3.78 8.41 8.41V39.62c0 4.631-3.779 8.41-8.41 8.41H19.367c-2.074 0-3.227-2.4-1.931-4.019l7.373-9.216v-16.94Zm30.175 25.23a3.48 3.48 0 0 0 3.463-3.464V17.854a3.48 3.48 0 0 0-3.463-3.463H33.218a3.48 3.48 0 0 0-3.463 3.463v17.809c0 .561-.19 1.106-.542 1.545l-4.7 5.875h30.471Z" class="two" fill="#0F1126"/><path d="M36.792 34.14a1.237 1.237 0 1 1 0-2.473h13.851a1.237 1.237 0 1 1 0 2.473h-13.85Zm0-9.778a1.237 1.237 0 1 1 0-2.473h13.851a1.237 1.237 0 1 1 0 2.473h-13.85Zm-20.055 7.855-6.349 2.557v3.123c0 .468-.264.896-.683 1.106L4.97 41.37c-1.978 1.023-1.978 3.903-.015 4.918l4.749 2.375c.419.21.683.638.683 1.106v3.958a5.206 5.206 0 0 1-5.194 5.194H1.237a1.237 1.237 0 1 1 0-2.474h3.957a2.732 2.732 0 0 0 2.721-2.72v-3.194l-4.08-2.04c-3.761-1.945-3.761-7.375.015-9.328l4.065-2.033V33.94c0-.504.307-.958.775-1.147l7.141-2.876c.46-.177.612-.886.268-1.23l-7.816-7.718a1.237 1.237 0 0 1-.368-.88V6.237a1.237 1.237 0 1 1 2.473 0V19.57l7.454 7.36c1.62 1.618 1.003 4.476-1.105 5.286Z" class="one" fill="#0f1126"/></svg>
